svgs/regular/clipboard-prescription.svg

<svg xmlns="http://www.w3.org/2000/svg" viewBox="0 0 384 512"><!-- Font Awesome Pro 6.0.0-alpha2 by @fontawesome - https://fontawesome.com License - https://fontawesome.com/license (Commercial License) --><path d="M320 64H270.387C262.973 27.484 230.701 0 192 0S121.027 27.484 113.613 64H64C28.654 64 0 92.656 0 128V448C0 483.344 28.654 512 64 512H320C355.346 512 384 483.344 384 448V128C384 92.656 355.346 64 320 64ZM192 48C205.234 48 216 58.766 216 72S205.234 96 192 96S168 85.234 168 72S178.766 48 192 48ZM336 448C336 456.82 328.822 464 320 464H64C55.178 464 48 456.82 48 448V128C48 119.18 55.178 112 64 112H82.264C80.932 117.141 80 122.441 80 128V144C80 152.836 87.164 160 96 160H288C296.836 160 304 152.836 304 144V128C304 122.441 303.068 117.141 301.736 112H320C328.822 112 336 119.18 336 128V448ZM294.156 321.844C286.344 314.031 273.656 314.031 265.844 321.844L240 347.688L207.277 314.965C224.438 304.398 236 285.598 236 264C236 230.906 209.094 204 176 204H104C92.969 204 84 212.969 84 224V368C84 379.031 92.969 388 104 388S124 379.031 124 368V324H159.688L211.688 376L185.844 401.844C178.062 409.656 178.062 422.344 185.844 430.156C189.75 434.062 194.875 436 200 436S210.25 434.062 214.156 430.156L240 404.312L265.844 430.156C269.75 434.062 274.875 436 280 436S290.25 434.062 294.156 430.156C301.938 422.344 301.938 409.656 294.156 401.844L268.312 376L294.156 350.156C301.938 342.344 301.938 329.656 294.156 321.844ZM176 284H124V244H176C187.031 244 196 252.969 196 264S187.031 284 176 284Z"/></svg>

<svg xmlns="http://www.w3.org/2000/svg" viewBox="0 0 384 512"><!--! Font Awesome Pro 6.3.0 by @fontawesome - https://fontawesome.com License - https://fontawesome.com/license (Commercial License) Copyright 2023 Fonticons, Inc. --><path d="M320 64H280h-9.6C263 27.5 230.7 0 192 0s-71 27.5-78.4 64H104 64C28.7 64 0 92.7 0 128V448c0 35.3 28.7 64 64 64H320c35.3 0 64-28.7 64-64V128c0-35.3-28.7-64-64-64zM80 112v24c0 13.3 10.7 24 24 24h88 88c13.3 0 24-10.7 24-24V112h16c8.8 0 16 7.2 16 16V448c0 8.8-7.2 16-16 16H64c-8.8 0-16-7.2-16-16V128c0-8.8 7.2-16 16-16H80zm88-32a24 24 0 1 1 48 0 24 24 0 1 1 -48 0zM104 204c-11 0-20 9-20 20v80 64c0 11 9 20 20 20s20-9 20-20V324h35.7l52 52-25.9 25.9c-7.8 7.8-7.8 20.5 0 28.3s20.5 7.8 28.3 0L240 404.3l25.9 25.9c7.8 7.8 20.5 7.8 28.3 0s7.8-20.5 0-28.3L268.3 376l25.9-25.9c7.8-7.8 7.8-20.5 0-28.3s-20.5-7.8-28.3 0L240 347.7l-32.6-32.6C224.6 304.6 236 285.6 236 264c0-33.1-26.9-60-60-60H104zm72 80h-8H124V244h52c11 0 20 9 20 20s-9 20-20 20z"/></svg>
